X: 1
T: Kolo from Ripanj
O: Serbia
Z: John Chambers <jc@trillian.mit.edu> from handwritten ms.
%%musicspace 5.0
M: 2/4
L: 1/16
K: D
"A"|: "D".d2.d2 d2dc | "A7"^B2c2 "D"d2dc | d2dc "A7"^B2c2 | "D"d4 d4 |
   | "D"^g2ga g2a2 | f2d2 dc^Bc | "A7"dc=cB c2^c2 | "D"d4 "->Coda"d4 :|
"B"|::: "D" d2dc "A7"^B2c2 | "D"d2^ga g2a2 | "A7"ba_ag a2=a2 | gfge "D"f4  :::|
"C"|: "D7"[=c4A4] [c2A4]dc | "G"[B4G4] [B2G4]=cB | "A7"[G4E4] [G2E4]AG \
   |1,3 [F4D4] "D"[FD4]GAB :|2 "D"k[F2D2] k[F2D2] [FD4]GAB :|4 "D"k[F2D2] k[F2D2] [FD4]G^GA ||
"D"|::: "A7"BA_AG ~A2=A2 | G2E2 "D"F4 | "A7"FGG2- G2E2 \
   |1-3 F2F2 "D"FG^GA :|4 "D"F2F2 F4  :|
"E"|::: "A7"G2GF G2E2 | "D"F4 A4 | "A7"G2GF G2E2 |1,3 F2"D"F2 FG^GA :|2,4 F2"D"F2 F4 :|
"Coda"[| "D".d2.d2 d2dc | "A7"^B2c2 "D"d2dc | d2dc "A7"^B2c2 | "D"d4 d4 ||
      |:: "D"^g2ga g2a2 | f2d2 dc^Bc ::| \
      |: "A7"dc=cB c2^c2 | "D"d4 d4 :| \
      | "A7"dc=cB c2^c2 | "D".d2"A".A2 "D".d2z2 |]
